src/22/panel/indicator-keyboard-Hu.svg

<svg viewBox="0 0 22 22" xmlns="http://www.w3.org/2000/svg">
 <path d="m 3 1 c -1.108 0 -2 0.892 -2 2 l 0 16 c 0 1.108 0.892 2 2 2 l 16 0 c 1.108 0 2 -0.892 2 -2 l 0 -16 c 0 -1.108 -0.892 -2 -2 -2 l -16 0 z m 0.895 5.838 l 1.576 0 l 0 3.463 l 3.762 0 l 0 -3.463 l 1.576 0 l 0 8.662 l -1.576 0 l 0 -3.838 l -3.762 0 l 0 3.838 l -1.576 0 l 0 -8.662 z m 8.836 2.125 l 1.512 0 l 0 3.424 c 0 0.7 0.101 1.2 0.301 1.5 c 0.208 0.3 0.566 0.451 1.074 0.451 c 0.183 0 0.374 -0.009 0.574 -0.025 c 0.208 -0.017 0.363 -0.037 0.463 -0.063 l 0 -5.287 l 1.514 0 l 0 6.338 c -0.292 0.075 -0.672 0.15 -1.139 0.225 c -0.467 0.083 -0.979 0.125 -1.537 0.125 c -0.525 0 -0.966 -0.075 -1.324 -0.225 c -0.35 -0.15 -0.635 -0.358 -0.852 -0.625 c -0.208 -0.267 -0.358 -0.585 -0.449 -0.951 c -0.092 -0.375 -0.137 -0.783 -0.137 -1.225 l 0 -3.662 z" style="fill:#ececec;fill-opacity:1"/>
</svg>

<svg viewBox="0 0 22 22" xmlns="http://www.w3.org/2000/svg"><path d="M3 1c-1.108 0-2 .892-2 2v16c0 1.108.892 2 2 2h16c1.108 0 2-.892 2-2V3c0-1.108-.892-2-2-2H3zm.895 5.838h1.576v3.463h3.762V6.838h1.576V15.5H9.233v-3.838H5.471V15.5H3.895V6.838zm8.836 2.125h1.512v3.424c0 .7.101 1.2.301 1.5.208.3.566.451 1.074.451.183 0 .374-.009.574-.025.208-.017.363-.037.463-.063V8.963h1.514v6.338c-.292.075-.672.15-1.139.225a8.8 8.8 0 0 1-1.537.125c-.525 0-.966-.075-1.324-.225a2.182 2.182 0 0 1-.852-.625 2.516 2.516 0 0 1-.449-.951 5.135 5.135 0 0 1-.137-1.225V8.963z" fill="#ececec"/></svg>
